X:1
T:Familiensekstur
C:Trad.
O:Danemark
Z:Bart Vanhaverbeke 
L:1/8
M:6/8
P:ABC
K:D
P:A
A/B/ | F2 A d2 A/B/ | F2 A d2 A/B/ | F2 A f2 e | (d3 d2) B/d/ |
B2 e f2 g | a2 g d2 B/c/ | A2 c e2 f | d3 d2 ||
P:B
K:A
f | e2 d B2 d | c2 A E2 E | F2 F B2 A | G3 G2 G |
EGB Ace |EGB Ace | f2 d B2 G | A3 A2 ||
P:C
K:D
f | d2 f a2 f | (d3 d2) f | d2 f a2 b | agf e2 e |
fef g2 g | aga b2 b | abf gea | d3 d2 ||
